X: 27705
T: Morning Breeze
R: jig
M: 6/8
K: Gmajor
DEG|:B2 B2 AG|AGE DEG|B2 B2 AG|d3 DEG|
B2 B2 AG|AGE eee|1 dBG GAB|A3 DEG:|2 dge dBG|A2 A ABd||
|:~e3 edB|g2g edB|~e3 edB|A3 ABd|
~e3 edB|gde gab|bge dgB|A3 ABd|
~e3 edB|g2g edB|~e3 edB|A3 ABd|
edB ged|bag edB|edB GAB|A3||

